X: 042077
T: Drumany Turn
C: Joe Liddy
Z: BB
S: "The Leitrim Fiddler" (Dublin 1981)
L: 1/8
M: 6/8
R: jig
Q: 1/4 = 170
K: Ador
g/f/ | eAA edB | dBA GED | EAA GAB | def gfg |
eAA edB | dBA GED | GBd edB | ABG A2 :|
e | a2a gab | age ged | eAA BAG | AGE GBd |
eaa gag | edB ABd | eAA BAG | ABG A2d |
eaa gag | edB ABd | e2f gfg | edB def | 
gbg age | dBG AGE | GAB edB | ABG A3 ||
%%%%%%%%%%%%%%%%%%%
